assets/icons/drive/ieee1394-filled.svg

<?xml version="1.0" encoding="UTF-8" standalone="no"?>
<svg viewBox="0 0 24 24" height="24" width="24" version="1.1" id="svg8" sodipodi:docname="ieee1394-filled.svg" inkscape:version="1.1 (ce6663b3b7, 2021-05-25)"
   xmlns:inkscape="http://www.inkscape.org/namespaces/inkscape"
   xmlns:sodipodi="http://sodipodi.sourceforge.net/DTD/sodipodi-0.dtd"
   xmlns="http://www.w3.org/2000/svg"
   xmlns:svg="http://www.w3.org/2000/svg">
   <defs id="defs12" />
   <sodipodi:namedview id="namedview10" pagecolor="#ffffff" bordercolor="#666666" borderopacity="1.0" inkscape:pageshadow="2" inkscape:pageopacity="0.0" inkscape:pagecheckerboard="0" showgrid="false" width="24px" inkscape:zoom="28" inkscape:cx="5.9107143" inkscape:cy="11.482143" inkscape:window-width="1920" inkscape:window-height="1016" inkscape:window-x="0" inkscape:window-y="27" inkscape:window-maximized="1" inkscape:current-layer="svg8" />
   <path id="path860" style="color:#000000;fill:#808080;fill-opacity:1;-inkscape-stroke:none" d="M 7.4550781 2 C 6.4864974 2.0089807 5.7372592 2.0732694 5.1171875 2.4453125 C 4.7038064 2.6933412 4.3972496 3.10122 4.2285156 3.6074219 C 4.0597817 4.1136238 4 4.722223 4 5.5 L 4 18.5 C 4 19.277777 4.059782 19.886376 4.2285156 20.392578 C 4.3972496 20.89878 4.7038064 21.306659 5.1171875 21.554688 C 5.9439497 22.050746 7.000002 22 8.5 22 L 15.5 22 C 16.999998 22 18.05605 22.05074 18.882812 21.554688 C 19.296194 21.306659 19.60275 20.89878 19.771484 20.392578 C 19.940218 19.886376 20 19.277777 20 18.5 L 20 5.5 C 20 4.722223 19.94022 4.1136238 19.771484 3.6074219 C 19.60275 3.10122 19.296194 2.6933412 18.882812 2.4453125 C 18.056051 1.9492552 16.999998 2 15.5 2 L 8.5 2 C 8.1250005 2 7.7779384 1.9970064 7.4550781 2 z M 9.6464844 7.6464844 L 10.353516 8.3535156 L 7.3535156 11.353516 L 6.6464844 10.646484 L 9.6464844 7.6464844 z M 14.353516 7.6464844 L 17.353516 10.646484 L 16.646484 11.353516 L 13.646484 8.3535156 L 14.353516 7.6464844 z M 12 10 A 3 3 0 0 1 15 13 A 3 3 0 0 1 12 16 A 3 3 0 0 1 9 13 A 3 3 0 0 1 12 10 z M 12 11 A 2 2 0 0 0 10 13 A 2 2 0 0 0 12 15 A 2 2 0 0 0 14 13 A 2 2 0 0 0 12 11 z M 10 17 L 14 17 L 14 18 L 10 18 L 10 17 z " />
</svg>

<svg height="24" width="24" xmlns="http://www.w3.org/2000/svg"><path style="color:#000;fill:gray;fill-opacity:1;-inkscape-stroke:none" d="M7.455 2c-.969.009-1.718.073-2.338.445-.413.248-.72.656-.888 1.162C4.059 4.114 4 4.722 4 5.5v13c0 .778.06 1.386.229 1.893.168.506.475.914.888 1.162C5.944 22.05 7 22 8.5 22h7c1.5 0 2.556.05 3.383-.445.413-.248.72-.656.888-1.162.17-.507.229-1.115.229-1.893v-13c0-.778-.06-1.386-.229-1.893-.168-.506-.475-.914-.888-1.162C18.056 1.95 17 2 15.5 2h-7c-.375 0-.722-.003-1.045 0zm2.191 5.646.708.708-3 3-.708-.708 3-3zm4.708 0 3 3-.708.708-3-3 .708-.708zM12 10a3 3 0 0 1 3 3 3 3 0 0 1-3 3 3 3 0 0 1-3-3 3 3 0 0 1 3-3zm0 1a2 2 0 0 0-2 2 2 2 0 0 0 2 2 2 2 0 0 0 2-2 2 2 0 0 0-2-2zm-2 6h4v1h-4v-1z"/></svg>
